X:1117
T:Johnny and Mary.
M:C
L:1/8
Q:1/4=104
Z:Jack Campin * www.campin.me.uk * 2009
K:D
AF   Ad  d2      ef      | AF   Ad     d2      ef|gf ed  B2cd   |A<F E>D {d}E4  |!
AF   Ad  d2      ef      | AF   Ad     d2      ef|gf ed  B2cd   |A<F E>F    D2z2|!
f2   f2  ec      BA      | A^G  B>d {d}c4        |
d>B  d>B e2 {fed}cz      |!d>B  d>B    e2 {fed}cz|
f>d ^g>e a2      g/f/e/d/| c2  TB2     HA2     z2|!
AF   Ad  d2      ef      | AF   Ad     d2      ef|gf ed  B2cd   |A<F E>D {D}E4  |!
d>e``f>d B2      B2      | e>f``g>e    c3       A|de`fg  abc'Hd'|a<f e>f    d4 |]
<end>
<start>
